X:465
T: "Die Einzige"
N: Z1145
O: Europa, Mitteleuropa, Deutschland, Niederrhein
R: Liebes - Lied
M: 2/4
L: 1/16
K: D
A2 | d4A4 | B4A2G2 | F2G2A2F2 | D4z2
d2 | d4c2d2 | e3dc2B2 | A4E4 | A4z2
A2 | F2A2A2A2 | A4d2d2 | B2B2e2d2 | c6
B2 | A2B2A2G2 | F6d2 | e4d2c2 | d4z2

